X: 2
I: linebreak $
T: Corwyn's Folly
T: Around the House and Mind the Dresser
P: 
C: Traditional
C: 
N: 
N: 
K: D major
M: 12/8
L: 1/8P: A
g | "D"f2d A2=c "G"B2A G2g | "D"f2d "A"AB=c "D"d3 d2"G"g | "D"f2d A2=c "G"B2A G3 | "D"fag "A7"fB=c "D"d3 d2 :: P: B a | "D"f2g agf "Em"e2f gfe | "D"f2g agf "A7"e3 g3 | "D"f2g agf "Em"e2f "G"g2a | "Em"ggf "A7"eAB "D"=cd3d2 :| 

